X: 1
T: Queen Dorene
C: Katie McNally
O: April 2020
R: reel
Z: 2021 John Chambers <jc:trillian.mit.edu>
M: C|
L: 1/8
K: C#m
|:\
c3 d cB G2 | BG FG Bc dB | cg fe cB G2 | GF GB c2 cB :|
Ag gB gg cg | g/g/g fe fe cB | Ag gB gg cg | bg fe fe cB |
Ag gB gg cg | g/g/g fe fe cB | Ag fe fe c2 | de dB GB de |]
